static/logos/krisp-glyph-color.svg

<svg width="100" height="46" viewBox="0 0 100 46" fill="none" xmlns="http://www.w3.org/2000/svg">
<g clip-path="url(#clip0_1_2246)">
<path d="M48.6965 9.25091C51.1176 9.25091 53.0803 7.28214 53.0803 4.85352C53.0803 2.4249 51.1176 0.456116 48.6965 0.456116C46.2752 0.456116 44.3125 2.4249 44.3125 4.85352C44.3125 7.28214 46.2752 9.25091 48.6965 9.25091Z" fill="#FF7E61"/>
<path d="M11.658 23.4233L22.9039 12.1428C23.0976 11.9486 22.9599 11.6121 22.6846 11.6121H13.5982C13.5165 11.6121 13.4392 11.6466 13.3789 11.7027L7.52358 17.5759V2.14837C7.52358 1.92828 7.29987 1.77724 7.09766 1.85923L0.670161 4.47006C0.554002 4.51753 0.476562 4.62973 0.476562 4.75919V35.144C0.476562 35.4288 0.708882 35.6618 0.992827 35.6618H7.00731C7.29125 35.6618 7.52358 35.4288 7.52358 35.144V29.2707L13.8134 35.5756C13.8694 35.6316 13.9511 35.6661 14.0328 35.6661L23.1234 35.6618C23.3987 35.6618 23.5364 35.3252 23.3428 35.131L11.658 23.4233Z" fill="#3C4151"/>
<path d="M45.6881 35.6618H51.7026C51.9865 35.6618 52.2189 35.4288 52.2189 35.1439V12.1342C52.2189 11.8494 51.9865 11.6163 51.7026 11.6163H45.6881C45.4041 11.6163 45.1719 11.8494 45.1719 12.1342V35.1483C45.1762 35.4332 45.4041 35.6618 45.6881 35.6618Z" fill="#3C4151"/>
<path fill-rule="evenodd" clip-rule="evenodd" d="M88.3022 11.6424C94.2134 12.048 99.0018 16.8511 99.4148 22.7761C99.9009 29.8102 94.3597 35.6619 87.459 35.6662C85.6951 35.6662 84.0215 35.2778 82.5157 34.5917V42.381C82.5157 42.5925 82.3909 42.7824 82.1931 42.8601L75.8947 45.4191C75.6924 45.5011 75.4688 45.3543 75.4688 45.13V23.6392H75.4731C75.4731 16.7129 81.2982 11.159 88.3022 11.6424ZM82.5157 23.6392C82.5157 26.3752 84.7271 28.5976 87.459 28.5976C90.1866 28.5976 92.398 26.3752 92.398 23.6392C92.398 20.9033 90.1866 18.6808 87.459 18.6808C84.7271 18.6808 82.5157 20.9033 82.5157 23.6392Z" fill="#3C4151"/>
<path d="M64.0955 17.4076C64.1171 17.4076 64.1429 17.4076 64.1644 17.4119C65.3217 17.3645 66.3628 18.1067 67.2104 19.2676C67.348 19.4575 67.5976 19.5221 67.8127 19.4359L72.657 17.481C72.9237 17.3732 73.0528 17.0667 72.941 16.7992C71.7234 13.856 68.0192 11.6163 64.0913 11.6163C58.963 11.6163 54.7985 14.8875 54.7985 18.9224C54.7985 21.0844 56.0547 22.9616 57.78 24.1871C59.3287 25.2876 61.1787 25.9996 63.0028 26.4743C63.0329 26.4829 63.063 26.4905 63.0932 26.498C63.1233 26.5055 63.1534 26.5132 63.1835 26.5218C65.6444 27.0699 65.9971 27.7214 65.9971 28.3645C65.9971 29.2017 64.9861 29.8792 63.7428 29.8792C62.4564 29.9611 61.3163 29.0764 60.4214 27.7301C60.2881 27.5272 60.0256 27.4539 59.802 27.5445L55.0136 29.5124C54.7512 29.6202 54.6308 29.9137 54.7297 30.1812C56.1021 33.9097 59.802 35.6704 63.7428 35.6704C68.871 35.6704 73.0355 32.4037 73.0355 28.3645C73.0355 27.4841 72.8377 26.6426 72.472 25.8616C72.1235 25.115 71.2158 23.5269 68.8668 22.4264C68.2812 22.1535 67.2429 21.7902 66.1522 21.4086C64.7427 20.9154 63.2457 20.3916 62.5253 19.9926C62.0864 19.7509 61.8369 19.3495 61.8369 18.9224C61.8369 18.0852 62.8522 17.4076 64.0955 17.4076Z" fill="#3C4151"/>
<path d="M42.6856 12.0436C42.7673 11.8408 42.6167 11.6163 42.3973 11.6163H37.8586C31.2547 11.6163 25.8984 16.9891 25.8984 23.6132V35.1439C25.8984 35.4288 26.1307 35.6618 26.4147 35.6618H32.4291C32.7131 35.6618 32.9411 35.4332 32.9411 35.1483V23.6132C32.9411 20.8859 35.1438 18.6763 37.8629 18.6763H39.7643C39.8891 18.6763 40.0011 18.603 40.0483 18.4864L42.6856 12.0436Z" fill="#3C4151"/>
</g>
<defs>
<clipPath id="clip0_1_2246">
<rect width="100" height="45.4545" fill="white"/>
</clipPath>
</defs>
</svg>

<svg xmlns="http://www.w3.org/2000/svg" width="139.13" height="64" fill="none" viewBox="0 0 100 46"><g clip-path="url(#a)"><path fill="#FF7E61" d="M48.697 9.25a4.39 4.39 0 0 0 4.383-4.396A4.39 4.39 0 0 0 48.697.456a4.39 4.39 0 0 0-4.385 4.398 4.39 4.39 0 0 0 4.385 4.397Z"/><path fill="#3C4151" d="m11.658 23.423 11.246-11.28a.312.312 0 0 0-.22-.53h-9.086a.324.324 0 0 0-.22.09l-5.854 5.873V2.148a.311.311 0 0 0-.426-.289L.67 4.47a.31.31 0 0 0-.193.29v30.384c0 .285.232.518.516.518h6.014a.519.519 0 0 0 .517-.518v-5.873l6.29 6.305c.055.056.137.09.219.09l9.09-.004a.312.312 0 0 0 .22-.531L11.658 23.423ZM45.688 35.662h6.015a.519.519 0 0 0 .516-.518v-23.01a.519.519 0 0 0-.516-.518h-6.015a.519.519 0 0 0-.516.518v23.014a.517.517 0 0 0 .516.514Z"/><path fill="#3C4151" fill-rule="evenodd" d="M88.302 11.642c5.911.406 10.7 5.21 11.113 11.134.486 7.034-5.055 12.886-11.956 12.89-1.764 0-3.438-.388-4.943-1.074v7.789a.51.51 0 0 1-.323.48l-6.298 2.558a.31.31 0 0 1-.426-.289V23.64h.004c0-6.927 5.825-12.481 12.83-11.998ZM82.516 23.64c0 2.736 2.211 4.959 4.943 4.959 2.728 0 4.939-2.223 4.939-4.959 0-2.736-2.211-4.958-4.939-4.958-2.732 0-4.943 2.222-4.943 4.958Z" clip-rule="evenodd"/><path fill="#3C4151" d="M64.096 17.408a.37.37 0 0 1 .068.004c1.158-.047 2.199.695 3.046 1.856.138.19.388.254.603.168l4.844-1.955a.52.52 0 0 0 .284-.682c-1.218-2.943-4.922-5.183-8.85-5.183-5.128 0-9.292 3.271-9.292 7.306 0 2.162 1.256 4.04 2.981 5.265 1.549 1.1 3.399 1.813 5.223 2.287l.09.024.09.024c2.461.548 2.814 1.2 2.814 1.843 0 .837-1.01 1.514-2.254 1.514-1.287.082-2.427-.803-3.322-2.149a.511.511 0 0 0-.619-.186l-4.788 1.968a.52.52 0 0 0-.284.67c1.372 3.728 5.072 5.488 9.013 5.488 5.128 0 9.292-3.266 9.292-7.306 0-.88-.197-1.721-.563-2.502-.348-.747-1.256-2.335-3.605-3.436-.586-.272-1.624-.636-2.715-1.017-1.41-.494-2.906-1.017-3.627-1.416-.439-.242-.688-.643-.688-1.07 0-.838 1.015-1.515 2.258-1.515ZM42.686 12.044a.312.312 0 0 0-.289-.428H37.86c-6.604 0-11.96 5.373-11.96 11.997v11.53c0 .286.232.519.516.519h6.014a.511.511 0 0 0 .512-.514V23.613a4.928 4.928 0 0 1 4.922-4.937h1.901a.304.304 0 0 0 .284-.19l2.638-6.442Z"/></g><defs><clipPath id="a"><path fill="#fff" d="M0 0h100v45.455H0z"/></clipPath></defs></svg>
